assets/svg/icon_arrow_select.svg

<svg width="24" height="24" viewBox="0 0 24 24" fill="none" xmlns="http://www.w3.org/2000/svg">
<path d="M11.2513 20.9792L6.20743 15.6386C5.61617 15.0126 6.06 13.9829 6.92112 13.9829H17.3056C18.1802 13.9829 18.6182 15.0403 17.9998 15.6587L12.6592 20.9993C12.268 21.3905 11.6311 21.3814 11.2513 20.9792Z" fill="#9A9A9A"/>
<path d="M11.2513 2.07521L6.20743 7.41582C5.61617 8.04187 6.06 9.07154 6.92113 9.07154H17.3056C18.1802 9.07154 18.6182 8.01413 17.9998 7.39571L12.6592 2.05511C12.268 1.66397 11.6311 1.67307 11.2513 2.07521Z" fill="#9A9A9A"/>
</svg>

<svg xmlns="http://www.w3.org/2000/svg" width="24" height="24" fill="none"><path fill="#9A9A9A" d="m11.251 20.98-5.044-5.341c-.59-.626-.147-1.656.714-1.656h10.385c.874 0 1.312 1.057.694 1.676l-5.34 5.34a.98.98 0 0 1-1.409-.02M11.251 2.075l-5.044 5.34c-.59.627-.147 1.657.714 1.657h10.385c.874 0 1.312-1.058.694-1.676l-5.34-5.34a.98.98 0 0 0-1.409.02"/></svg>
